X:46
T:La Gavotte
O:France
A:Provence
C:Trad. militaire
R:Danse de caract?re
Z:Transcrit et/ou corrig? par Michel BELLON - 2005-03-06
Z:Pour toute observation mailto:galouvielle@free.fr
M:2/4
L:1/8
P: ABCBC
K:Bbmajor
V:1
P:A
{FGA}B2B2|B3 c/d/|ed cB|AG AF|B2B2|B3 c/d/|cB AG|F4::
P:B
c>d ec|AF FF|(B/A/).B/.c/ (d/A/).B/.G/|F4 :|\
P:C
FA cA|ec AF|B2 d>c|B4|]
V:2 clef=perc stafflines=1 staffscale=0.7
[K:C]B2 B2 | BBB2 | B2 B2 | BBB2 | B2 B2 | BBB2 | B2 B2 | BBB2 | B2 B2 | BBB2 | 
B2 B2 | BBB2 | B2 B2 | BBB2 | B2 B2 | B3z |
<end>
<start>
